src/img/atribuicao-04.svg

<svg width="40" height="45" viewBox="0 0 40 45" fill="none" xmlns="http://www.w3.org/2000/svg">
<path d="M37.8999 23.157H40.0001V33.6855H37.8999V23.157Z" fill="#3B2027"/>
<path d="M35.7861 2.10034H37.9001V10.5287H35.7861V2.10034Z" fill="#3B2027"/>
<path d="M35.7862 23.157H37.9002V21.0569H35.7862V18.9429H33.686V39.9999H35.7862V35.7857H37.9002V33.6855H35.7862V23.157Z" fill="#3B2027"/>
<path d="M33.686 10.5283H35.7862V12.6285H33.686V10.5283Z" fill="#3B2027"/>
<path d="M33.686 0H35.7862V2.10017H33.686V0Z" fill="#3B2027"/>
<path d="M31.5718 40.0002H33.6858V42.1142H31.5718V40.0002Z" fill="#3B2027"/>
<path d="M31.5718 16.8425H33.6858V18.9427H31.5718V16.8425Z" fill="#3B2027"/>
<path d="M29.4717 23.157H31.5719V27.3711H29.4717V23.157Z" fill="#3B2027"/>
<path d="M29.4717 4.21411H31.5719V8.41446H29.4717V4.21411Z" fill="#3B2027"/>
<path d="M8.41455 42.114H31.5717V44.2142H8.41455V42.114Z" fill="#3B2027"/>
<path d="M25.2573 21.0574H29.4715V23.1575H25.2573V21.0574Z" fill="#3B2027"/>
<path d="M27.3716 8.41455H29.4718V10.5285H27.3716V8.41455Z" fill="#3B2027"/>
<path d="M27.3716 2.10034H29.4718V4.21433H27.3716V2.10034Z" fill="#3B2027"/>
<path d="M25.2573 27.3713H29.4715V29.4715H25.2573V27.3713Z" fill="#3B2027"/>
<path d="M12.6284 33.6858V35.786H14.7286V37.9H16.8426V40.0001H23.1569V37.9H25.2571V35.786H27.3711V33.6858H12.6284Z" fill="#3B2027"/>
<path d="M23.1567 23.157H25.2569V27.3711H23.1567V23.157Z" fill="#3B2027"/>
<path d="M16.8428 31.5855H23.1571V29.4715H21.0431V27.3713H18.9429V29.4715H16.8428V31.5855Z" fill="#3B2027"/>
<path d="M14.729 23.157H16.843V27.3711H14.729V23.157Z" fill="#3B2027"/>
<path d="M10.5283 27.3713H14.7287V29.4715H10.5283V27.3713Z" fill="#3B2027"/>
<path d="M10.5283 21.0574H14.7287V23.1575H10.5283V21.0574Z" fill="#3B2027"/>
<path d="M31.5717 16.8428V14.7427H21.0432V10.5285H23.1572V8.41451H25.2574V2.10017H23.1572V0H16.8429V2.10017H14.7289V8.41451H16.8429V10.5285H18.943V14.7427H8.41455V16.8428H31.5717Z" fill="#3B2027"/>
<path d="M10.5283 8.41455H12.6285V10.5285H10.5283V8.41455Z" fill="#3B2027"/>
<path d="M10.5283 2.10034H12.6285V4.21433H10.5283V2.10034Z" fill="#3B2027"/>
<path d="M8.41455 23.157H10.5285V27.3711H8.41455V23.157Z" fill="#3B2027"/>
<path d="M8.41455 4.21411H10.5285V8.41446H8.41455V4.21411Z" fill="#3B2027"/>
<path d="M6.31445 40.0002H8.41463V42.1142H6.31445V40.0002Z" fill="#3B2027"/>
<path d="M6.31445 16.8425H8.41463V18.9427H6.31445V16.8425Z" fill="#3B2027"/>
<path d="M6.31426 18.9429H4.20027V21.0569H2.1001V23.157H4.20027V33.6855H2.1001V35.7857H4.20027V39.9999H6.31426V18.9429Z" fill="#3B2027"/>
<path d="M4.20068 10.5283H6.31467V12.6285H4.20068V10.5283Z" fill="#3B2027"/>
<path d="M4.20068 0H6.31467V2.10017H4.20068V0Z" fill="#3B2027"/>
<path d="M2.1001 2.10034H4.20027V10.5287H2.1001V2.10034Z" fill="#3B2027"/>
<path d="M0 23.157H2.10017V33.6855H0V23.157Z" fill="#3B2027"/>
</svg>

<svg width="40" height="45" fill="none" xmlns="http://www.w3.org/2000/svg"><path d="M37.9 23.157H40v10.528h-2.1V23.157zM35.786 2.1H37.9v8.429h-2.114V2.1zm0 21.057H37.9v-2.1h-2.114v-2.114h-2.1V40h2.1v-4.214H37.9v-2.1h-2.114v-10.53zm-2.1-12.629h2.1v2.1h-2.1v-2.1zm0-10.528h2.1v2.1h-2.1V0zm-2.114 40h2.114v2.114h-2.114V40zm0-23.157h2.114v2.1h-2.114v-2.1zm-2.1 6.314h2.1v4.214h-2.1v-4.214zm0-18.943h2.1v4.2h-2.1v-4.2zm-21.057 37.9h23.157v2.1H8.415v-2.1zm16.842-21.057h4.214v2.1h-4.214v-2.1zm2.115-12.642h2.1v2.114h-2.1V8.415zm0-6.315h2.1v2.114h-2.1V2.1zm-2.115 25.271h4.214v2.1h-4.214v-2.1zm-12.629 6.315v2.1h2.1V37.9h2.115V40h6.314v-2.1h2.1v-2.114h2.114v-2.1H12.628zm10.529-10.529h2.1v4.214h-2.1v-4.214zm-6.314 8.428h6.314v-2.114h-2.114v-2.1h-2.1v2.1h-2.1v2.114zm-2.114-8.428h2.114v4.214h-2.114v-4.214zm-4.201 4.214h4.2v2.1h-4.2v-2.1zm0-6.314h4.2v2.1h-4.2v-2.1z" fill="#3B2027"/><path d="M31.572 16.843v-2.1H21.043v-4.215h2.114V8.415h2.1V2.1h-2.1V0h-6.314v2.1h-2.114v6.315h2.114v2.114h2.1v4.214H8.415v2.1h23.157z" fill="#3B2027"/><path d="M10.528 8.415h2.1v2.114h-2.1V8.415zm0-6.315h2.1v2.114h-2.1V2.1zM8.415 23.157h2.114v4.214H8.415v-4.214zm0-18.943h2.114v4.2H8.415v-4.2zM6.314 40h2.1v2.114h-2.1V40zm0-23.157h2.1v2.1h-2.1v-2.1zm0 2.1H4.2v2.114H2.1v2.1h2.1v10.528H2.1v2.1h2.1V40h2.114V18.943zM4.2 10.528h2.115v2.1H4.2v-2.1zM4.2 0h2.115v2.1H4.2V0zM2.1 2.1h2.1v8.429H2.1V2.1zM0 23.157h2.1v10.528H0V23.157z" fill="#3B2027"/></svg>
